packages/ffe-icons/icons/filled/md/golf_course.svg

<svg xmlns="http://www.w3.org/2000/svg" height="24" viewBox="0 -960 960 960" width="24"><path d="M780.045-130.001q-20.814 0-35.429-14.57-14.615-14.57-14.615-35.384t14.57-35.429q14.57-14.615 35.384-14.615t35.429 14.57q14.615 14.57 14.615 35.384t-14.57 35.429q-14.57 14.615-35.384 14.615Zm-380 40q-95.814 0-162.929-20.423-67.115-20.422-67.115-49.576 0-21.201 38.385-37.792 38.385-16.592 90.846-24.515v29.231q0 14.692 10.173 25.038t25.211 10.346q14.693 0 25.039-10.346 10.346-10.346 10.346-25.038v-612.923q0-20.885 17.077-31.327 17.076-10.442 35.153-1.211l170.443 83.025q20.632 9.82 20.825 32.512.192 22.692-19.885 32.538l-163.615 84.308v377.385q86 5 143 23.782 57 18.781 57 44.987 0 29.154-67.07 49.576-67.07 20.423-162.884 20.423Z"/></svg>

<svg xmlns="http://www.w3.org/2000/svg" height="24" viewBox="0 -960 960 960" width="24"><path d="M780.05-130q-20.82 0-35.43-14.57Q730-159.14 730-179.95q0-20.82 14.57-35.43Q759.14-230 779.95-230q20.82 0 35.43 14.57Q830-200.86 830-180.05q0 20.82-14.57 35.43Q800.86-130 780.05-130Zm-380 40q-95.82 0-162.93-20.42Q170-130.85 170-160q0-21.2 38.39-37.79 38.38-16.59 90.84-24.52v29.23q0 14.7 10.18 25.04 10.17 10.35 25.21 10.35 14.69 0 25.03-10.35Q370-178.38 370-193.08V-806q0-20.88 17.08-31.33 17.07-10.44 35.15-1.21l170.44 83.03q20.64 9.82 20.83 32.51.19 22.69-19.89 32.54L430-606.15v377.38q86 5 143 23.78T630-160q0 29.15-67.07 49.58Q495.86-90 400.05-90Z"/></svg>
